small/extra/apps/standard/viber.svg

<?xml version="1.0" encoding="UTF-8" standalone="no"?>
<svg
   xmlns:dc="http://purl.org/dc/elements/1.1/"
   xmlns:cc="http://creativecommons.org/ns#"
   xmlns:rdf="http://www.w3.org/1999/02/22-rdf-syntax-ns#"
   xmlns:svg="http://www.w3.org/2000/svg"
   xmlns="http://www.w3.org/2000/svg"
   xmlns:xlink="http://www.w3.org/1999/xlink"
   xmlns:sodipodi="http://sodipodi.sourceforge.net/DTD/sodipodi-0.dtd"
   xmlns:inkscape="http://www.inkscape.org/namespaces/inkscape"
   viewBox="0 0 512 512"
   id="svg2"
   version="1.1"
   inkscape:version="0.91+devel r13804 custom"
   sodipodi:docname="viber.svg">
  <metadata
     id="metadata472">
    <rdf:RDF>
      <cc:Work
         rdf:about="">
        <dc:format>image/svg+xml</dc:format>
        <dc:type
           rdf:resource="http://purl.org/dc/dcmitype/StillImage" />
        <dc:title></dc:title>
      </cc:Work>
    </rdf:RDF>
  </metadata>
  <sodipodi:namedview
     pagecolor="#ffffff"
     bordercolor="#666666"
     borderopacity="1"
     objecttolerance="10"
     gridtolerance="10"
     guidetolerance="10"
     inkscape:pageopacity="0"
     inkscape:pageshadow="2"
     inkscape:window-width="1366"
     inkscape:window-height="709"
     id="namedview470"
     showgrid="false"
     inkscape:zoom="0.4609375"
     inkscape:cx="683.38983"
     inkscape:cy="174.88241"
     inkscape:window-x="-2"
     inkscape:window-y="-3"
     inkscape:window-maximized="1"
     inkscape:current-layer="svg2" />
  <defs
     id="defs4">
    <path
       style="fill:#fff;stroke:#fff;stroke-width:1.665"
       d="m42.21 113.76c1.985 19.71 10.376 44.47 23.59 71.71 23.31 48.08 57.57 107.91 106.27 153.35 80.62 75.22 173.78 129.49 222.74 131.35 28.823-9.09 55.31-31.885 67.28-57.09 7.478-9.637 10.536-20.942 4.442-29.655-18.348-26.24-45.1-45.897-69.42-58.44-20.285-10.468-26.773-21.292-49.42-16.245-19.2 13.515-25.01 20.728-44.625 41.708-67.71-10.443-143.97-99.2-136.9-142.34 7.661-10.346 14.848-16.322 21.12-21.508 9.582-7.929 17.01-14.01 20.683-31.03-10.744-43.27-34.481-60.21-65.37-99.67-18.14-13.941-27.19-15.986-46.67-2.902-19.301 17.681-43.18 30.644-51.32 53.863z"
       id="2" />
  </defs>
  <path
     inkscape:connector-curvature="0"
     d="M 26,0 C 11.603,0 0,11.603 0,26 l 0,460 c 0,14.397 11.603,26 26,26 l 460,0 c 14.397,0 26,-11.603 26,-26 L 512,26 C 512,11.603 500.397,0 486,0 L 26,0"
     style="fill:#7d529e"
     id="path327995" />
  <text
     sodipodi:linespacing="125%"
     y="-458.54001"
     x="-220.60001"
     line-height="125%"
     style="font-size:129.22999573px;line-height:125%;font-family:'Gentium Book Basic';letter-spacing:0;word-spacing:0"
     id="text327997">
    <tspan
       y="-458.54001"
       x="-220.60001"
       id="tspan327999" />
  </text>
  <text
     transform="scale(4.0128205,0.24920128)"
     y="-2189.1787"
     x="142.10927"
     style="font-size:46.95399857px;font-family:Arial;text-anchor:middle"
     id="text328001" />
  <text
     sodipodi:linespacing="125%"
     y="-538.53998"
     x="360.67001"
     line-height="125%"
     style="font-size:129.22999573px;line-height:125%;font-family:'Gentium Book Basic';letter-spacing:0;word-spacing:0"
     id="text328003">
    <tspan
       y="-538.53998"
       x="360.67001"
       id="tspan328005" />
  </text>
  <text
     transform="scale(4.0128205,0.24920128)"
     y="-2510.207"
     x="286.95853"
     style="font-size:46.95399857px;font-family:Arial;text-anchor:middle"
     id="text328007" />
  <text
     sodipodi:linespacing="125%"
     y="-719.79999"
     x="-710.90997"
     line-height="125%"
     style="font-size:129.22999573px;line-height:125%;font-family:'Gentium Book Basic';letter-spacing:0;word-spacing:0"
     id="text328009">
    <tspan
       y="-719.79999"
       x="-710.90997"
       id="tspan328011" />
  </text>
  <text
     transform="scale(4.0128205,0.24920128)"
     y="-3237.5635"
     x="19.917898"
     style="font-size:46.95399857px;font-family:Arial;text-anchor:middle"
     id="text328013" />
  <text
     sodipodi:linespacing="125%"
     y="-936.27002"
     x="387.14001"
     line-height="125%"
     style="font-size:129.22999573px;line-height:125%;font-family:'Gentium Book Basic';letter-spacing:0;word-spacing:0"
     id="text328015">
    <tspan
       y="-936.27002"
       x="387.14001"
       id="tspan328017" />
  </text>
  <text
     transform="scale(4.0128205,0.24920128)"
     y="-4106.2192"
     x="293.5585"
     style="font-size:46.95399857px;font-family:Arial;text-anchor:middle"
     id="text328019" />
  <text
     sodipodi:linespacing="125%"
     y="-1016.28"
     x="968.40997"
     line-height="125%"
     style="font-size:129.22999573px;line-height:125%;font-family:'Gentium Book Basic';letter-spacing:0;word-spacing:0"
     id="text328021">
    <tspan
       y="-1016.28"
       x="968.40997"
       id="tspan328023" />
  </text>
  <text
     transform="scale(4.0128205,0.24920128)"
     y="-4427.2573"
     x="438.40775"
     style="font-size:46.95399857px;font-family:Arial;text-anchor:middle"
     id="text328025" />
  <text
     sodipodi:linespacing="125%"
     y="-1488.6801"
     x="579.28998"
     line-height="125%"
     style="font-size:129.22999573px;line-height:125%;font-family:'Gentium Book Basic';letter-spacing:0;word-spacing:0"
     id="text328027">
    <tspan
       y="-1488.6801"
       x="579.28998"
       id="tspan328029" />
  </text>
  <text
     transform="scale(4.0128205,0.24920128)"
     y="-6322.8979"
     x="341.43826"
     style="font-size:46.95399857px;font-family:Arial;text-anchor:middle"
     id="text328031" />
  <text
     sodipodi:linespacing="125%"
     y="-1568.6801"
     x="1160.55"
     line-height="125%"
     style="font-size:129.22999573px;line-height:125%;font-family:'Gentium Book Basic';letter-spacing:0;word-spacing:0"
     id="text328033">
    <tspan
       y="-1568.6801"
       x="1160.55"
       id="tspan328035" />
  </text>
  <text
     transform="scale(4.0128205,0.24920128)"
     y="-6643.9258"
     x="486.28751"
     style="font-size:46.95399857px;font-family:Arial;text-anchor:middle"
     id="text328037" />
  <text
     sodipodi:linespacing="125%"
     y="-153.96001"
     x="-672.25"
     line-height="125%"
     style="font-size:208.33000183px;line-height:125%;font-family:'Gentium Book Basic';letter-spacing:0;word-spacing:0"
     id="text328039">
    <tspan
       y="-153.96001"
       x="-672.25"
       id="tspan328041" />
  </text>
  <use
     y="0"
     x="0"
     xlink:href="#2"
     height="1"
     width="1"
     id="use328043" />
  <path
     inkscape:connector-curvature="0"
     id="0"
     d="m 291.41,155.27 c 34.72,2.704 58.758,18.671 61.31,61.31"
     style="fill:none;stroke:#ffffff;stroke-width:21.64500046;stroke-linecap:round;stroke-linejoin:round" />
  <path
     inkscape:connector-curvature="0"
     d="M 275.59375,91.03125 A 10.823593,10.823593 0 0 0 274.4375,112.625 c 37.21,3.847 65.48,15.02 84.938,33.75 19.457,18.728 30.997,45.503 33,83.69 A 10.827122,10.827122 0 1 0 414,228.9375 C 411.79,186.84 398.31,153.79 374.41,130.78 350.5,107.77 317.06,95.27 276.69,91.09 a 10.823593,10.823593 0 0 0 -1.09375,-0.0625"
     style="color:#000000;fill:#ffffff"
     id="path328046" />
  <use
     y="0"
     x="0"
     xlink:href="#0"
     height="1"
     width="1"
     id="1" />
  <path
     style="stroke:none;stroke-width:1.66499996;opacity:0.25"
     d="M 260.38086 41.027344 L 284.54102 65.1875 C 276.40883 64.03436 267.92654 63.174468 259.06055 62.630859 L 289.11133 92.681641 C 285.047 92.061141 280.90832 91.527997 276.68945 91.091797 L 303.06055 117.46289 C 294.1907 115.29794 284.65403 113.68691 274.43945 112.63086 L 328.14844 166.33984 C 318.21869 159.77251 305.72978 156.38475 291.41016 155.26953 L 512 375.85938 L 512 203.2793 L 407.57031 98.849609 C 373.43031 64.709609 324.39086 44.952344 260.38086 41.027344 z M 117.24414 44.232422 C 111.05542 44.413219 104.50977 47.242382 95.949219 52.992188 C 76.648219 70.673187 52.770859 83.636468 44.630859 106.85547 L 168.48242 230.70703 C 169.97928 235.68187 172.06803 240.88353 174.66016 246.21094 L 42.210938 113.75977 C 44.195937 133.46977 52.586781 158.2307 65.800781 185.4707 L 65.804688 185.47461 C 87.755616 230.75391 119.4184 286.44173 163.70312 330.73047 L 163.92969 330.95703 C 163.85347 330.88096 163.77536 330.80661 163.69922 330.73047 L 344.9707 512 L 486 512 C 500.397 512 512 500.397 512 486 L 512 425.54102 L 497.24414 410.78516 C 496.88274 410.32704 496.53331 409.90373 496.16992 409.43945 L 142.61914 55.890625 C 142.62442 55.89737 142.62949 55.903413 142.63477 55.910156 L 142.61914 55.894531 C 132.98227 48.488375 125.9112 44.439111 118.47852 44.232422 C 118.06862 44.221024 117.65672 44.220369 117.24414 44.232422 z "
     id="path328053" />
  <g
     style="color:#000000;fill:#ffffff;stroke:none"
     id="g328123">
    <path
       inkscape:connector-curvature="0"
       d="m 259.28125,41 a 10.823593,10.823593 0 0 0 -0.21875,21.625 c 61.854,3.792 105.54,22.606 135.44,53.844 29.898,31.24 46.578,75.79 51.28,133.09 a 10.823593,10.823593 0 1 0 21.5625,-1.78125 C 462.37,187.22 444.39,137.27 410.16,101.5 375.92,65.732 326.03,45.06 260.38,41.03 A 10.823593,10.823593 0 0 0 259.28125,41"
       id="path328125" />
    <path
       inkscape:connector-curvature="0"
       d="M 275.59375,91.03125 A 10.823593,10.823593 0 0 0 274.4375,112.625 c 37.21,3.847 65.48,15.02 84.938,33.75 19.457,18.728 30.997,45.503 33,83.69 A 10.827122,10.827122 0 1 0 414,228.9375 C 411.79,186.84 398.31,153.79 374.41,130.78 350.5,107.77 317.06,95.27 276.69,91.09 a 10.823593,10.823593 0 0 0 -1.09375,-0.0625"
       id="path328127" />
  </g>
  <use
     y="0"
     x="0"
     xlink:href="#2"
     height="1"
     width="1"
     id="use328129" />
  <use
     y="0"
     x="0"
     xlink:href="#1"
     height="1"
     width="1"
     id="use328131" />
  <use
     y="0"
     x="0"
     xlink:href="#2"
     height="1"
     width="1"
     id="use328133" />
</svg>

<?xml version="1.0" encoding="UTF-8" standalone="no"?>
<svg
   xmlns:dc="http://purl.org/dc/elements/1.1/"
   xmlns:cc="http://creativecommons.org/ns#"
   xmlns:rdf="http://www.w3.org/1999/02/22-rdf-syntax-ns#"
   xmlns:svg="http://www.w3.org/2000/svg"
   xmlns="http://www.w3.org/2000/svg"
   xmlns:xlink="http://www.w3.org/1999/xlink"
   xmlns:sodipodi="http://sodipodi.sourceforge.net/DTD/sodipodi-0.dtd"
   xmlns:inkscape="http://www.inkscape.org/namespaces/inkscape"
   viewBox="0 0 512 512"
   id="svg2"
   version="1.1"
   inkscape:version="0.91 r13725"
   sodipodi:docname="viber.svg">
  <metadata
     id="metadata472">
    <rdf:RDF>
      <cc:Work
         rdf:about="">
        <dc:format>image/svg+xml</dc:format>
        <dc:type
           rdf:resource="http://purl.org/dc/dcmitype/StillImage" />
        <dc:title />
      </cc:Work>
    </rdf:RDF>
  </metadata>
  <sodipodi:namedview
     pagecolor="#ffffff"
     bordercolor="#666666"
     borderopacity="1"
     objecttolerance="10"
     gridtolerance="10"
     guidetolerance="10"
     inkscape:pageopacity="0"
     inkscape:pageshadow="2"
     inkscape:window-width="1366"
     inkscape:window-height="709"
     id="namedview470"
     showgrid="false"
     inkscape:zoom="0.4609375"
     inkscape:cx="418.71186"
     inkscape:cy="156.44173"
     inkscape:window-x="-2"
     inkscape:window-y="-3"
     inkscape:window-maximized="1"
     inkscape:current-layer="svg2" />
  <defs
     id="defs4">
    <path
       style="fill:#fff;stroke:#fff;stroke-width:1.665"
       d="m42.21 113.76c1.985 19.71 10.376 44.47 23.59 71.71 23.31 48.08 57.57 107.91 106.27 153.35 80.62 75.22 173.78 129.49 222.74 131.35 28.823-9.09 55.31-31.885 67.28-57.09 7.478-9.637 10.536-20.942 4.442-29.655-18.348-26.24-45.1-45.897-69.42-58.44-20.285-10.468-26.773-21.292-49.42-16.245-19.2 13.515-25.01 20.728-44.625 41.708-67.71-10.443-143.97-99.2-136.9-142.34 7.661-10.346 14.848-16.322 21.12-21.508 9.582-7.929 17.01-14.01 20.683-31.03-10.744-43.27-34.481-60.21-65.37-99.67-18.14-13.941-27.19-15.986-46.67-2.902-19.301 17.681-43.18 30.644-51.32 53.863z"
       id="2" />
  </defs>
  <path
     inkscape:connector-curvature="0"
     d="m 25.99995,0 c -14.397,0 -26,11.603 -26,26 l 0,460 c 0,14.397 11.603,26 26,26 l 459.99999,0 c 14.397,0 26,-11.603 26,-26 l 0,-460 c 0,-14.397 -11.603,-26 -26,-26 L 25.99995,0"
     style="fill:#7d529e"
     id="path327995" />
  <use
     y="0"
     x="0"
     xlink:href="#2"
     height="1"
     width="1"
     id="use328043"
     transform="translate(-5e-5,0)" />
  <path
     style="color:#000000;font-style:normal;font-variant:normal;font-weight:normal;font-stretch:normal;font-size:medium;line-height:normal;font-family:sans-serif;text-indent:0;text-align:start;text-decoration:none;text-decoration-line:none;text-decoration-style:solid;text-decoration-color:#000000;letter-spacing:normal;word-spacing:normal;text-transform:none;direction:ltr;block-progression:tb;writing-mode:lr-tb;baseline-shift:baseline;text-anchor:start;white-space:normal;clip-rule:nonzero;display:inline;overflow:visible;visibility:visible;opacity:1;isolation:auto;mix-blend-mode:normal;color-interpolation:sRGB;color-interpolation-filters:linearRGB;solid-color:#000000;solid-opacity:1;fill:#ffffff;fill-opacity:1;fill-rule:nonzero;stroke:none;stroke-width:21.64500046;stroke-linecap:round;stroke-linejoin:round;stroke-miterlimit:4;stroke-dasharray:none;stroke-dashoffset:0;stroke-opacity:1;color-rendering:auto;image-rendering:auto;shape-rendering:auto;text-rendering:auto;enable-background:accumulate"
     d="m 291.16987,144.43555 a 10.823582,10.823582 0 0 0 -0.59961,21.625 c 15.90873,1.23897 28.00261,5.40573 36.29297,12.91211 8.29037,7.50638 13.89299,18.87685 15.05274,38.2539 a 10.823582,10.823582 0 1 0 21.60741,-1.29297 c -1.39226,-23.26195 -9.08422,-41.19299 -22.13085,-53.00586 -13.04664,-11.81287 -30.3313,-16.98224 -49.14258,-18.44726 a 10.823582,10.823582 0 0 0 -1.08008,-0.0449 z"
     id="0"
     inkscape:connector-curvature="0" />
  <path
     style="color:#000000;font-style:normal;font-variant:normal;font-weight:normal;font-stretch:normal;font-size:medium;line-height:normal;font-family:sans-serif;text-indent:0;text-align:start;text-decoration:none;text-decoration-line:none;text-decoration-style:solid;text-decoration-color:#000000;letter-spacing:normal;word-spacing:normal;text-transform:none;direction:ltr;block-progression:tb;writing-mode:lr-tb;baseline-shift:baseline;text-anchor:start;white-space:normal;clip-rule:nonzero;display:inline;overflow:visible;visibility:visible;opacity:1;isolation:auto;mix-blend-mode:normal;color-interpolation:sRGB;color-interpolation-filters:linearRGB;solid-color:#000000;solid-opacity:1;fill:#ffffff;fill-opacity:1;fill-rule:nonzero;stroke:none;stroke-width:1;stroke-linecap:butt;stroke-linejoin:miter;stroke-miterlimit:4;stroke-dasharray:none;stroke-dashoffset:0;stroke-opacity:1;color-rendering:auto;image-rendering:auto;shape-rendering:auto;text-rendering:auto;enable-background:accumulate"
     d="m 275.59956,90.52734 -0.006,1 c 0.34852,0.002 0.69646,0.0231 1.04297,0.0605 l 0.002,0 c 40.29656,4.1724 73.61647,16.64151 97.42382,39.55273 23.79534,22.90924 37.23236,55.81739 39.4375,97.82227 l 0,0.002 0,0.002 c 0.33199,5.72352 -4.04613,10.61163 -9.77148,10.91015 -5.72536,0.29852 -10.58848,-4.10892 -10.85352,-9.83593 l 0,-0.002 c -2.00762,-38.27511 -13.59496,-65.19881 -33.15233,-84.02344 -19.56076,-18.8289 -47.95164,-30.03415 -85.23438,-33.88867 l -0.002,0 c -5.49661,-0.54647 -9.58246,-5.30841 -9.28711,-10.82422 0.29535,-5.5158 4.86709,-9.81509 10.39062,-9.77148 l 0.008,-1 c -6.04783,-0.0478 -11.07311,4.67939 -11.39649,10.71875 -0.32334,6.03871 4.16818,11.27377 10.18555,11.87305 37.13726,3.83948 65.28733,14.98023 84.64258,33.61133 19.3566,18.63137 30.84926,45.25853 32.84764,83.35742 0.29219,6.26702 5.63849,11.11185 11.9043,10.78515 6.26579,-0.32669 11.07986,-5.70145 10.71875,-11.96484 l 0,-0.002 C 412.28476,186.72094 398.76008,153.53027 374.7558,130.41987 350.74317,107.31114 317.18558,94.7794 276.74214,90.5918 l 0.002,0.002 c -0.38008,-0.0411 -0.76225,-0.0639 -1.14453,-0.0664 z"
     id="path328046"
     inkscape:connector-curvature="0" />
  <use
     y="0"
     x="0"
     xlink:href="#0"
     height="1"
     width="1"
     id="1"
     style="fill:#ffffff"
     transform="translate(-4.9152542e-6,-1.6949153e-6)" />
  <path
     inkscape:connector-curvature="0"
     style="opacity:0.25;stroke:none;stroke-width:1.66499996"
     d="m 260.38081,41.02734 24.16016,24.16016 c -8.13219,-1.15314 -16.61448,-2.01303 -25.48047,-2.55664 l 30.05078,30.05078 C 285.04695,92.06114 280.90827,91.528 276.6894,91.0918 l 26.3711,26.37109 c -8.86985,-2.16495 -18.40652,-3.77598 -28.6211,-4.83203 l 53.70899,53.70898 c -9.92975,-6.56733 -22.41866,-9.95509 -36.73828,-11.07031 l 220.58983,220.58985 0,-172.58008 L 407.57025,98.84961 c -34.14,-34.14 -83.17944,-53.89727 -147.18944,-57.82227 z m -143.13672,3.20508 c -6.18872,0.1808 -12.73437,3.00996 -21.29493,8.75977 -19.301,17.681 -43.17836,30.64428 -51.31836,53.86328 l 123.85157,123.85156 c 1.49686,4.97484 3.58561,10.1765 6.17774,15.50391 L 42.21088,113.75977 c 1.985,19.71 10.37585,44.47093 23.58985,71.71093 l 0.004,0.004 c 21.95092,45.2793 53.61371,100.96712 97.89843,145.25586 l 0.22657,0.22656 c -0.0762,-0.0761 -0.15433,-0.15042 -0.23047,-0.22656 L 344.97075,512 l 141.02929,0 c 14.397,0 26,-11.603 26,-26 l 0,-60.45898 -14.75586,-14.75586 c -0.3614,-0.45812 -0.71083,-0.88143 -1.07422,-1.34571 L 142.61909,55.89062 c 0.005,0.007 0.0104,0.0128 0.0156,0.0195 l -0.0156,-0.0156 c -9.63687,-7.40615 -16.70794,-11.45542 -24.14062,-11.66211 -0.4099,-0.0114 -0.8218,-0.012 -1.23438,0 z"
     id="path328053" />
  <path
     style="color:#000000;fill:#ffffff;stroke:none"
     id="path328125"
     d="m 259.2812,41 a 10.823593,10.823593 0 0 0 -0.21875,21.625 c 61.854,3.792 105.54,22.606 135.44,53.844 29.898,31.24 46.578,75.79 51.28,133.09 a 10.823593,10.823593 0 1 0 21.5625,-1.78125 C 462.36995,187.22 444.38995,137.27 410.15995,101.5 c -34.24,-35.768 -84.13,-56.44 -149.78,-60.47 A 10.823593,10.823593 0 0 0 259.2812,41"
     inkscape:connector-curvature="0" />
  <path
     style="color:#000000;fill:#ffffff;stroke:none"
     id="path328127"
     d="m 275.5937,91.03125 a 10.823593,10.823593 0 0 0 -1.15625,21.59375 c 37.21,3.847 65.48,15.02 84.938,33.75 19.457,18.728 30.997,45.503 33,83.69 a 10.827122,10.827122 0 1 0 21.6245,-1.1275 c -2.21,-42.0975 -15.69,-75.1475 -39.59,-98.1575 -23.91,-23.01 -57.35,-35.51 -97.72,-39.69 a 10.823593,10.823593 0 0 0 -1.09375,-0.0625"
     inkscape:connector-curvature="0" />
  <use
     y="0"
     x="0"
     xlink:href="#2"
     height="1"
     width="1"
     id="use328129"
     transform="translate(-5e-5,0)" />
  <use
     y="0"
     x="0"
     xlink:href="#1"
     height="1"
     width="1"
     id="use328131"
     style="fill:#ffffff"
     transform="translate(-4.9152542e-6,-1.6949153e-6)" />
  <use
     y="0"
     x="0"
     xlink:href="#2"
     height="1"
     width="1"
     id="use328133"
     style="fill:#282629"
     transform="translate(-5e-5,0)" />
</svg>
